X:1
T:James Gibb editions
T:Inter natos mulierum - Asola
T:#
%%score [ 1 2 3 4 ]
L:1/8
Q:1/4=100
M:2/2
K:Eb
V:1 treble nm="Alto" snm="A"
V:2 treble-8 nm="Tenor I" snm="T I"
V:3 treble-8 nm="Tenor II" snm="T II"
V:4 bass nm="Bass" snm="B"
V:1
"^Giovanni Matteo Asola\n(1560-1609 )" z8"^Inter natos mulierum" | z8 | z8 | z8 | z4 F4- | %5
w: ||||In\-|
 F2 F2 E4 | D4 (F3 E | CDEF G2) G2 | (F2 G3 F E2- | E2 D2) E4 | z2 B4 B2 | A4 G2 (B2- | %12
w: * ter na-|tos mu\- *|* * * * * li-|e\- * * *|* * rum,|in- ter|na- tos mu\-|
 BAFG A3) E | (G2 F3 E/D/ E2) | F4 z2 F2- | F2 D2 E2 F2 | G4 F4 | z4 z2 G2- | G2 E2 F2 G2 | %19
w: * * * * * li-|e\- * * * *|rum non|* sur- re- xit|ma- jor,|non|* sur- re- xit|
 (A2 G4 F2) | G4 z2 F2 | D2 G4 F2 | G4 E2 F2 | F2 G2 E2 E2 | F4 G4 | G8 | A8 | G8 | %28
w: ma\- * *|jor, non|sur- re- xit|ma- jor, non|* sur- re- xit|ma- jor|Jo-|an-|ne|
 (F3 E F2) (G2- | GF E4 D2) | E8- | E4 z2 F2 | G6 F2 | G2 E2 D2 B,2 | C2 D2 E4- | E2 E2 E4 | %36
w: Ba\- * * pti\-||sta,|* qui|vi- am|Do- mi- ni, qui|vi- am Do\-|* mi- ni,|
 z4 z2 G2 | A6 G2 | A2 F2 E2 F2 | G6 F2 | G2 =A2 B2 F2- | F2 F2 G2 F2 | (DEFD) E2 F2 | %43
w: qui|vi- am|Do- mi- ni, qui|vi- am|Do- mi- ni prae\-|* pa- ra- vit|in * * * e- re-|
 B,2 z E2 C D2 | E2 G2 F2 F2 | E4 z2 F2 | G2 G4 G2 | B4 (A2 GF | G2) G2 F2 G2 | (E3 F G2) G2 | %50
w: mo, prae- pa- ra-|vit in e- re-|mo, prae-|pa- ra- vit|in e\- * *|* re- mo, in|e\- * * re-|
 F2 G4 G2 | A2 G2 (EFGE | F2) (G3 F E2) | (D2 E4 D2 | E8) | E8- | E8 | E8 |] %58
w: mo, prae- pa-|ra- vit in * * *|* e\- * *|re\- * *||mo.|||
V:2
 z4 f4- | f2 f2 e4 | d2 (f3 edc | d2) e2 (c3 d | edBc d4) | c4 z4 | z8 | z4 z2 d2- | d2 d2 (edcB | %9
w: In\-|* ter na-|tos mu\- * * *|* li- e\- *||rum,||in\-|* ter na\- * * *|
 c2) A2 B2 B2 | (G3 A B4) | F4 z4 | f4 f2 e2- | e2 d2 d2 B2 | c4 d4- | d4 z4 | z4 z2 d2- | %17
w: * tos mu- li-|e\- * *|rum,|in- ter na\-|* tos mu- li-|e- rum||non|
 d2 B2 c2 d2 | e4 d4 | z8 | z2 B4 A2 | B2 e2 d4 | e4 z4 | z8 | z8 | d8 | f8 | e8 | c2 (_d3 c B2- | %29
w: * sur- re- xit|ma- jor,||non sur-|re- xit ma-|jor|||Jo-|an-|ne|Ba- pti\- * *|
 B2 A2) B4 | z2 B2 c4- | c2 B2 c2 d2 | e4 z4 | z8 | z4 B4 | c6 B2 | c2 d2 e2 e2 | f6 e2 | %38
w: * * sta,|qui vi\-|* am Do- mi-|ni,||qui|vi- am|Do- mi- ni, qui|vi- am|
 c2 d2 e2 d2 | (B2 e4) d2 | e2 e2 f4 | z8 | z4 z2 B2- | B2 B2 c2 B2 | (GABG) A2 B2 | E3 e2 c d2 | %46
w: Do- mi- ni, qui|vi\- * am|Do- mi- ni||prae\-|* pa- ra- vit|in * * * e- re-|mo, prae- pa- ra-|
 e8- | e4 z2 e2- | e2 e2 f2 e2 | (cdec) d2 e2 | A2 e4 e2 | c2 e4 e2 | (dcBA G2) A2 | B4 B4- | %54
w: vit,|* prae\-|* pa- ra- vit|in * * * e- re-|mo, prae- pa-|ra- vit in|e\- * * * * re-|mo, in|
 B4 c4- | c4 c4 | B8- | B8 |] %58
w: * e\-|* re-|mo.||
V:3
 z8 | z8 | z4 z2 B2- | B2 B2 A4 | G4 (B3 A | FGAB c2) c2 | (B3 c de f2- | fe c2) d4 | z8 | %9
w: ||In\-|* ter na-|tos mu\- *|* * * * * li-|e\- * * * *|* * * rum,||
 z4 z2 e2- | e2 e2 d4 | c4 (e3 d/c/ | d2 d2 c4 | B2 B2 G2 (B2- | B2 =A2) B2 F2 | B4 c2 d2 | e4 d4 | %17
w: in\-|* ter na-|tos mu\- * *|* li- e-|rum, mu- li- e\-|* * rum non|sur- re- xit|ma- jor,|
 z8 | z4 z2 B2 | c4 d2 d2 | e3 d c4) | B4 z4 | B4 c2 d2- | d2 e2 (c2 e2- | ed/c/ d2) e4 | B8 | c8 | %27
w: |non|sur- re- xit|ma\- * *|jor,|non sur- re\-|* xit ma\- *|* * * * jor|Jo-|an-|
 c8 | (A4 B4) | (E4 F4) | E2 E2 A4- | A2 G2 A2 F2 | E2 B4 B2- | B2 A2 (BAFG | A2) F2 E4 | z8 | %36
w: ne|Ba\- *|pti\- *|sta, qui vi\-|* am Do- mi-|ni, qui vi\-|* am Do\- * * *|* mi- ni,||
 z4 B4 | (FGAB c2) c2 | A2 B2 E2 B2 | G2 E2 B4- | B2 c2 d4- | d4 z2 B2- | B2 B2 c2 B2 | %43
w: qui|vi\- * * * * am|Do- mi- ni, qui|vi- am Do\-|* mi- ni|* prae\-|* pa- ra- vit|
 (GABG) A2 B2 | E4 z4 | z4 z2 B2- | B2 B2 c2 B2 | (GABG) A2 B2 | E2 G2 B2 B2 | A2 A2 G2 E2 | %50
w: in * * * e- re-|mo,|prae\-|* pa- ra- vit|in * * * e- re-|mo, prae- pa- ra-|vit in e- re-|
 F2 B4 B2 | A2 B2 c4 | (BAGF E3 F | G4) F4 | E2 G4 G2 | A8 | G8- | G8 |] %58
w: mo, prae- pa-|ra- vit in|e\- * * * * *|* re-|mo, in e-|re-|mo.||
V:4
 B,6 B,2 | A,4 G,4 | (B,3 A,/G,/ F,2 G,2- | G,2) E,2 (F,3 E, | C,D, E,2 B,,C,D,E, | F,4 C,4) | %6
w: In- ter|na- tos|mu\- * * * *|* li- e\- *|||
 G,2 B,4 B,2 | A,4 G,4 | (B,3 A, G,2) A,2 | F,4 E,4- | E,4 z4 | z4 z2 B,2- | B,2 B,2 A,4 | %13
w: rum, in- ter|na- tos|mu\- * * li-|e- rum,||in\-|* ter na-|
 G,2 (B,3 A,) G,2 | F,4 B,,4- | B,,4 z4 | z4 z2 B,2- | B,2 G,2 A,2 B,2 | C4 B,4 | z8 | z2 E,4 F,2 | %21
w: tos mu\- * li-|e- rum||non|* sur- re- xit|ma- jor,||non sur-|
 G,2 E,2 B,4 | E,4 z2 B,2- | B,2 G,2 A,2 C2 | B,4 E,4 | G,8 | F,8 | C,8 | (F,4 B,,4) | (C,4 B,,4) | %30
w: re- xit ma-|jor, non|* sur- re- xit|ma- jor|Jo-|an-|ne|Ba\- *|pti\- *|
 E,4 z4 | z4 z2 B,,2 | E,6 D,2 | E,2 C,2 B,,4 | z4 z2 E,2 | A,6 G,2 | A,2 F,2 E,4 | z8 | %38
w: sta,|qui|vi- am|Do- mi- ni,|qui|vi- am|Do- mi- ni,||
 z4 z2 B,,2 | E,6 B,,2 | E,2 C,2 B,,4- | B,,8 | z8 | z4 z2 B,2- | B,2 B,2 C2 B,2 | %45
w: qui|vi- am|Do- mi- ni|||prae\-|* pa- ra- vit|
 (G,A,B,G,) A,2 B,2 | E,4 z2 E,2- | E,2 E,2 F,2 E,2 | (C,D,E,C,) D,2 E,2 | A,,4 z4 | z2 E,4 E,2 | %51
w: in * * * e- re-|mo, prae\-|* pa- ra- vit|in * * * e- re-|mo,|prae- pa-|
 F,2 E,2 (C,D,E,C,) | (D,2 E,3 D,) C,2 | B,,8 | E,4 C,4 | A,,8 | E,8- | E,8 |] %58
w: ra- vit in * * *|e\- * * re-|mo,|in e-|re-|mo.||

